Newaita-dark/apps/22/com.github.bartzaalberg.bookmark-manager.svg

<svg height="22" viewBox="0 0 22 22" width="22" xmlns="http://www.w3.org/2000/svg" xmlns:xlink="http://www.w3.org/1999/xlink"><linearGradient id="a" gradientUnits="userSpaceOnUse" x1="10.9151136" x2="10.9151136" y1="19.27333715" y2="20.18293042919"><stop offset="0" stop-opacity=".27451"/><stop offset="1" stop-opacity="0"/></linearGradient><linearGradient id="b"><stop offset="0" stop-opacity=".313726"/><stop offset=".222222" stop-opacity=".27451"/><stop offset="1" stop-opacity="0"/></linearGradient><radialGradient id="c" cx="450.908936" cy="189.579361" gradientTransform="matrix(.00000012 -.0537161 -.0966889 -.00000007 34.475434 43.721791)" gradientUnits="userSpaceOnUse" r="21.166656" xlink:href="#b"/><radialGradient id="d" cx="450.908936" cy="189.579361" gradientTransform="matrix(-.00000012 .0537161 .0966889 .00000007 -12.645221 -5.175143)" gradientUnits="userSpaceOnUse" r="21.166656" xlink:href="#b"/><radialGradient id="e" cx="450.908936" cy="189.579361" gradientTransform="matrix(-.00000012 -.0537161 .0966889 -.00000007 -12.645221 43.721791)" gradientUnits="userSpaceOnUse" r="21.166656" xlink:href="#b"/><radialGradient id="f" cx="450.908936" cy="189.579361" gradientTransform="matrix(.00000012 .0537161 -.0966889 .00000007 34.475433 -5.175142)" gradientUnits="userSpaceOnUse" r="21.166656" xlink:href="#b"/><linearGradient id="g"><stop offset="0" stop-color="#424242"/><stop offset="1" stop-color="#616161"/></linearGradient><linearGradient id="h" gradientTransform="matrix(.0518029 0 0 .149471 -4.024634 23.128427)" gradientUnits="userSpaceOnUse" x1="306.916656" x2="305.954559" xlink:href="#g" y1="-25.791676" y2="-141.414581"/><linearGradient id="i" gradientTransform="matrix(4.556143 0 0 13.146184 -353.972656 2034.180176)" gradientUnits="userSpaceOnUse" x1="165.484848" x2="165.484848" xlink:href="#g" y1="-25.791672" y2="-141.414581"/><linearGradient id="j"><stop offset="0" stop-color="#42a5f5"/><stop offset="1" stop-color="#64b5f6"/></linearGradient><linearGradient id="k" gradientUnits="userSpaceOnUse" x1="275.166301" x2="275.166301" xlink:href="#j" y1="233.49969318561" y2="-168.66647475188"/><linearGradient id="l" gradientUnits="userSpaceOnUse" x1="370.416376" x2="370.416376" xlink:href="#j" y1="80.0412949526" y2="-168.66671710991"/><linearGradient id="m" gradientUnits="userSpaceOnUse" x1="10.46032030419" x2="10.46032030419" y1="19.27333515" y2="1.99106765838"><stop offset="0" stop-color="#bdbdbd"/><stop offset="1" stop-color="#e0e0e0"/></linearGradient><linearGradient id="n" gradientUnits="userSpaceOnUse" x1="4.54796470838" x2="4.54796470838" xlink:href="#g" y1="7.22123961432" y2="6.31164663595"/><linearGradient id="o" gradientUnits="userSpaceOnUse" x1="4.54796470838" x2="4.54796470838" xlink:href="#g" y1="14.72537561432" y2="13.81578263595"/><path d="m5.457031 19.273438h10.914063v.910156h-10.914063zm0 0" fill="url(#a)"/><path d="m16.371094 19.273438h1.820312v-.910157h-1.820312zm0 0" fill="url(#c)"/><path d="m5.457031 19.273438h-1.820312v.910156h1.820312zm0 0" fill="url(#d)"/><path d="m5.457031 19.273438h-1.820312v-.910157h1.820312zm0 0" fill="url(#e)"/><path d="m16.371094 19.273438h1.820312v.910156h-1.820312zm0 0" fill="url(#f)"/><path d="m4.546875 1.992188h12.734375c.503906 0 .910156.40625.910156.910156v15.460937c0 .503907-.40625.910157-.910156.910157h-12.734375c-.5 0-.910156-.40625-.910156-.910157v-15.460937c0-.503906.410156-.910156.910156-.910156zm0 0" fill="url(#h)"/><path d="m399.904566 175.215918c-44.31932 0-80.049625 35.730305-80.049625 80.049626v1359.81295c0 44.31932 35.730305 80.049625 80.049625 80.049625h120.246219v-1519.912201zm0 0" fill="url(#i)" stroke="#212121" stroke-linecap="round" stroke-width="11.338583" transform="scale(.0113699)"/><path d="m4.546875 19.273438c-.503906 0-.910156-.40625-.910156-.910157v-.113281c0 .503906.40625.910156.910156.910156h12.734375c.503906 0 .910156-.40625.910156-.910156v.113281c0 .503907-.40625.910157-.910156.910157zm0 0" fill-opacity=".196078"/><path d="m4.546875 1.992188c-.503906 0-.910156.40625-.910156.910156v.113281c0-.503906.40625-.910156.910156-.910156h12.734375c.503906 0 .910156.40625.910156.910156v-.113281c0-.503906-.40625-.910156-.910156-.910156zm0 0" fill="#e6e6e6" fill-opacity=".392157"/><path d="m4.546875 1.925781c-.539063 0-.972656.4375-.972656.976563v15.460937c0 .539063.433593.972657.972656.972657h12.734375c.539062 0 .976562-.433594.976562-.972657v-15.460937c0-.539063-.4375-.976563-.976562-.976563zm0 .128907h12.734375c.46875 0 .847656.375.847656.847656v15.460937c0 .46875-.378906.84375-.847656.84375h-12.734375c-.46875 0-.84375-.375-.84375-.84375v-15.460937c0-.472656.375-.847656.84375-.847656zm0 0" fill="#212121"/><path d="m148.167669-147.460995v359.783824h243.431299c5.817626 0 10.544447-4.726821 10.544447-10.544448v-338.694929c0-5.908526-4.726821-10.544447-10.544447-10.544447zm0 0" style="fill:none;stroke-width:8;stroke-linecap:round;stroke-linejoin:round;stroke-dasharray:16.000002 16.000002;stroke-dashoffset:7.200001;stroke:url(#k)" transform="matrix(.0429729 0 0 .0429729 0 9.239163)"/><path d="m349.239377-168.640791v253.975747c15.907571-42.359591 26.452019-42.359591 42.359591 0v-253.975747zm0 0" fill="url(#l)" stroke="#212121" stroke-linecap="round" stroke-linejoin="round" stroke-width="3" transform="matrix(.0429729 0 0 .0429729 0 9.239163)"/><path d="m8.453125 4.609375c-.179687-.179687-.464844-.179687-.644531 0-.175782.179687-.175782.464844 0 .644531l1.289062 1.285156-1.289062 1.285157c-.175782.179687-.175782.464843 0 .644531.179687.179688.464844.179688.644531 0l1.609375-1.609375c.007812-.011719.019531-.019531.03125-.035156.144531-.175781.132812-.441407-.03125-.605469zm0 0" fill="url(#m)"/><path d="m8.132812 4.476562c-.117187 0-.234374.042969-.324218.132813-.117188.117187-.15625.285156-.117188.433594.019532-.078125.058594-.148438.117188-.210938.179687-.175781.464844-.175781.644531 0l1.609375 1.609375c.058594.058594.097656.132813.117188.210938.039062-.152344 0-.316406-.117188-.433594l-1.609375-1.609375c-.089844-.089844-.207031-.132813-.320313-.132813zm.851563 2.175782-1.175781 1.171875c-.117188.117187-.15625.285156-.117188.433593.019532-.074218.058594-.148437.117188-.207031l1.289062-1.289062zm0 0" fill="#fff"/><path d="m7.710938 5.101562c-.066407.164063-.035157.359376.097656.492188l1.117187 1.117188.171875-.171876-1.289062-1.285156c-.042969-.046875-.078125-.097656-.097656-.152344zm2.449218 1.609376c-.015625.039062-.039062.078124-.066406.113281-.011719.015625-.023438.023437-.03125.035156l-1.609375 1.609375c-.179687.179688-.464844.179688-.644531 0-.042969-.042969-.078125-.097656-.097656-.152344-.066407.164063-.035157.359375.097656.492188.179687.179687.464844.179687.644531 0l1.609375-1.605469c.007812-.011719.019531-.023437.03125-.035156.105469-.132813.128906-.308594.066406-.457031zm0 0" fill-opacity=".235294"/><path d="m196.708488-107.737516c-4.181419-4.181419-10.817149-4.181419-14.998568 0-4.090518 4.181419-4.090518 10.817149 0 14.998568l29.997136 29.906235-29.997136 29.906235c-4.090518 4.181419-4.090518 10.817149 0 14.998568 4.181419 4.181419 10.817149 4.181419 14.998568 0l37.450969-37.450969c.181801-.272702.454502-.454502.727203-.818104 3.363316-4.090519 3.090614-10.271746-.727203-14.089564zm0 0" fill="none" stroke="#212121" stroke-linecap="round" stroke-width="3" transform="matrix(.0429729 0 0 .0429729 0 9.239163)"/><path d="m4.546875 1.925781c-.539063 0-.972656.4375-.972656.976563v15.460937c0 .539063.433593.972657.972656.972657h12.734375c.539062 0 .976562-.433594.976562-.972657v-15.460937c0-.539063-.4375-.976563-.976562-.976563zm0 .128907h12.734375c.46875 0 .847656.375.847656.847656v15.460937c0 .46875-.378906.84375-.847656.84375h-12.734375c-.46875 0-.84375-.375-.84375-.84375v-15.460937c0-.472656.375-.847656.84375-.847656zm0 0" fill="#212121"/><path d="m3.636719 6.3125h2.277343v.910156h-2.277343zm0 0" fill="url(#n)"/><path d="m3.636719 7.222656v.339844h2.277343v-.339844zm0 0" fill-opacity=".235294"/><path d="m3.636719 6.3125v.226562h2.277343v-.226562zm0 0" fill="#fff" fill-opacity=".392157"/><path d="m84.628302-20.48017h52.99494v21.179796h-52.99494zm0 0" fill="none" stroke="#212121" stroke-linecap="round" stroke-linejoin="round" stroke-width="3" transform="matrix(.0429729 0 0 .0429729 -.000001 7.192591)"/><path d="m3.636719 13.816406h2.277343v.910156h-2.277343zm0 0" fill="url(#o)"/><path d="m3.636719 14.726562v.339844h2.277343v-.339844zm0 0" fill-opacity=".235294"/><path d="m3.636719 13.816406v.226563h2.277343v-.226563zm0 0" fill="#fff" fill-opacity=".392157"/><path d="m84.628302-20.4855h52.99494v21.179795h-52.99494zm0 0" fill="none" stroke="#212121" stroke-linecap="round" stroke-linejoin="round" stroke-width="3" transform="matrix(.0429729 0 0 .0429729 -.000001 14.696727)"/></svg>

<?xml version="1.0" encoding="UTF-8"?>
<svg xmlns="http://www.w3.org/2000/svg" xmlns:xlink="http://www.w3.org/1999/xlink" width="22px" height="22px" viewBox="0 0 22 22" version="1.1">
<defs>
<linearGradient id="linear0" gradientUnits="userSpaceOnUse" x1="254" y1="233.5" x2="254" y2="254.666672" gradientTransform="matrix(0.0429729,0,0,0.0429729,-0.00000262285,9.239165)">
<stop offset="0" style="stop-color:rgb(0%,0%,0%);stop-opacity:0.27451;"/>
<stop offset="1" style="stop-color:rgb(0%,0%,0%);stop-opacity:0;"/>
</linearGradient>
<radialGradient id="radial0" gradientUnits="userSpaceOnUse" cx="450.908936" cy="189.579361" fx="450.908936" fy="189.579361" r="21.166656" gradientTransform="matrix(0.000000119742,-0.0537161,-0.0966889,-0.0000000698078,34.475434,43.721791)">
<stop offset="0" style="stop-color:rgb(0%,0%,0%);stop-opacity:0.313726;"/>
<stop offset="0.222222" style="stop-color:rgb(0%,0%,0%);stop-opacity:0.27451;"/>
<stop offset="1" style="stop-color:rgb(0%,0%,0%);stop-opacity:0;"/>
</radialGradient>
<radialGradient id="radial1" gradientUnits="userSpaceOnUse" cx="450.908936" cy="189.579361" fx="450.908936" fy="189.579361" r="21.166656" gradientTransform="matrix(-0.000000119742,0.0537161,0.0966889,0.0000000698078,-12.645221,-5.175143)">
<stop offset="0" style="stop-color:rgb(0%,0%,0%);stop-opacity:0.313726;"/>
<stop offset="0.222222" style="stop-color:rgb(0%,0%,0%);stop-opacity:0.27451;"/>
<stop offset="1" style="stop-color:rgb(0%,0%,0%);stop-opacity:0;"/>
</radialGradient>
<radialGradient id="radial2" gradientUnits="userSpaceOnUse" cx="450.908936" cy="189.579361" fx="450.908936" fy="189.579361" r="21.166656" gradientTransform="matrix(-0.000000119742,-0.0537161,0.0966889,-0.0000000698078,-12.645221,43.721791)">
<stop offset="0" style="stop-color:rgb(0%,0%,0%);stop-opacity:0.313726;"/>
<stop offset="0.222222" style="stop-color:rgb(0%,0%,0%);stop-opacity:0.27451;"/>
<stop offset="1" style="stop-color:rgb(0%,0%,0%);stop-opacity:0;"/>
</radialGradient>
<radialGradient id="radial3" gradientUnits="userSpaceOnUse" cx="450.908936" cy="189.579361" fx="450.908936" fy="189.579361" r="21.166656" gradientTransform="matrix(0.000000119742,0.0537161,-0.0966889,0.0000000698078,34.475433,-5.175142)">
<stop offset="0" style="stop-color:rgb(0%,0%,0%);stop-opacity:0.313726;"/>
<stop offset="0.222222" style="stop-color:rgb(0%,0%,0%);stop-opacity:0.27451;"/>
<stop offset="1" style="stop-color:rgb(0%,0%,0%);stop-opacity:0;"/>
</radialGradient>
<linearGradient id="linear1" gradientUnits="userSpaceOnUse" x1="306.916656" y1="-25.791676" x2="305.954559" y2="-141.414581" gradientTransform="matrix(0.0518029,0,0,0.149471,-4.024634,23.128427)">
<stop offset="0" style="stop-color:rgb(25.882354%,25.882354%,25.882354%);stop-opacity:1;"/>
<stop offset="1" style="stop-color:rgb(38.039216%,38.039216%,38.039216%);stop-opacity:1;"/>
</linearGradient>
<linearGradient id="linear2" gradientUnits="userSpaceOnUse" x1="165.484848" y1="-25.791672" x2="165.484848" y2="-141.414581" gradientTransform="matrix(4.556143,0,0,13.146184,-353.972656,2034.180176)">
<stop offset="0" style="stop-color:rgb(25.882354%,25.882354%,25.882354%);stop-opacity:1;"/>
<stop offset="1" style="stop-color:rgb(38.039216%,38.039216%,38.039216%);stop-opacity:1;"/>
</linearGradient>
<linearGradient id="linear3" gradientUnits="userSpaceOnUse" x1="1040" y1="1695.118164" x2="1040" y2="175.118134" gradientTransform="matrix(0.264583,0,0,0.264583,-0.0000193333,-214.999756)">
<stop offset="0" style="stop-color:rgb(25.882354%,64.705884%,96.078432%);stop-opacity:1;"/>
<stop offset="1" style="stop-color:rgb(39.215687%,70.980394%,96.470588%);stop-opacity:1;"/>
</linearGradient>
<linearGradient id="linear4" gradientUnits="userSpaceOnUse" x1="840" y1="1115.117188" x2="840" y2="175.117218" gradientTransform="matrix(0.264583,0,0,0.264583,148.166656,-214.999756)">
<stop offset="0" style="stop-color:rgb(25.882354%,64.705884%,96.078432%);stop-opacity:1;"/>
<stop offset="1" style="stop-color:rgb(39.215687%,70.980394%,96.470588%);stop-opacity:1;"/>
</linearGradient>
<linearGradient id="linear5" gradientUnits="userSpaceOnUse" x1="243.416672" y1="233.5" x2="243.416672" y2="-168.666656" gradientTransform="matrix(0.0429729,0,0,0.0429729,0,9.239163)">
<stop offset="0" style="stop-color:rgb(74.117649%,74.117649%,74.117649%);stop-opacity:1;"/>
<stop offset="1" style="stop-color:rgb(87.843138%,87.843138%,87.843138%);stop-opacity:1;"/>
</linearGradient>
<linearGradient id="linear6" gradientUnits="userSpaceOnUse" x1="105.833344" y1="0.666667" x2="105.833344" y2="-20.499998" gradientTransform="matrix(0.0429729,0,0,0.0429729,-0.000000873781,7.192591)">
<stop offset="0" style="stop-color:rgb(25.882354%,25.882354%,25.882354%);stop-opacity:1;"/>
<stop offset="1" style="stop-color:rgb(38.039216%,38.039216%,38.039216%);stop-opacity:1;"/>
</linearGradient>
<linearGradient id="linear7" gradientUnits="userSpaceOnUse" x1="105.833344" y1="0.666667" x2="105.833344" y2="-20.499998" gradientTransform="matrix(0.0429729,0,0,0.0429729,-0.000000873781,14.696727)">
<stop offset="0" style="stop-color:rgb(25.882354%,25.882354%,25.882354%);stop-opacity:1;"/>
<stop offset="1" style="stop-color:rgb(38.039216%,38.039216%,38.039216%);stop-opacity:1;"/>
</linearGradient>
</defs>
<g id="surface1">
<path style=" stroke:none;fill-rule:nonzero;fill:url(#linear0);" d="M 5.457031 19.273438 L 16.371094 19.273438 L 16.371094 20.183594 L 5.457031 20.183594 Z M 5.457031 19.273438 "/>
<path style=" stroke:none;fill-rule:nonzero;fill:url(#radial0);" d="M 16.371094 19.273438 L 18.191406 19.273438 L 18.191406 18.363281 L 16.371094 18.363281 Z M 16.371094 19.273438 "/>
<path style=" stroke:none;fill-rule:nonzero;fill:url(#radial1);" d="M 5.457031 19.273438 L 3.636719 19.273438 L 3.636719 20.183594 L 5.457031 20.183594 Z M 5.457031 19.273438 "/>
<path style=" stroke:none;fill-rule:nonzero;fill:url(#radial2);" d="M 5.457031 19.273438 L 3.636719 19.273438 L 3.636719 18.363281 L 5.457031 18.363281 Z M 5.457031 19.273438 "/>
<path style=" stroke:none;fill-rule:nonzero;fill:url(#radial3);" d="M 16.371094 19.273438 L 18.191406 19.273438 L 18.191406 20.183594 L 16.371094 20.183594 Z M 16.371094 19.273438 "/>
<path style=" stroke:none;fill-rule:nonzero;fill:url(#linear1);" d="M 4.546875 1.992188 L 17.28125 1.992188 C 17.785156 1.992188 18.191406 2.398438 18.191406 2.902344 L 18.191406 18.363281 C 18.191406 18.867188 17.785156 19.273438 17.28125 19.273438 L 4.546875 19.273438 C 4.046875 19.273438 3.636719 18.867188 3.636719 18.363281 L 3.636719 2.902344 C 3.636719 2.398438 4.046875 1.992188 4.546875 1.992188 Z M 4.546875 1.992188 "/>
<path style="fill-rule:nonzero;fill:url(#linear2);stroke-width:11.338583;stroke-linecap:round;stroke-linejoin:miter;stroke:rgb(12.941177%,12.941177%,12.941177%);stroke-opacity:1;stroke-miterlimit:4;" d="M 399.904566 175.215918 C 355.585246 175.215918 319.854941 210.946223 319.854941 255.265544 L 319.854941 1615.078494 C 319.854941 1659.397814 355.585246 1695.128119 399.904566 1695.128119 L 520.150785 1695.128119 L 520.150785 175.215918 Z M 399.904566 175.215918 " transform="matrix(0.0113699,0,0,0.0113699,0,0)"/>
<path style=" stroke:none;fill-rule:nonzero;fill:rgb(0%,0%,0%);fill-opacity:0.196078;" d="M 4.546875 19.273438 C 4.042969 19.273438 3.636719 18.867188 3.636719 18.363281 L 3.636719 18.25 C 3.636719 18.753906 4.042969 19.160156 4.546875 19.160156 L 17.28125 19.160156 C 17.785156 19.160156 18.191406 18.753906 18.191406 18.25 L 18.191406 18.363281 C 18.191406 18.867188 17.785156 19.273438 17.28125 19.273438 Z M 4.546875 19.273438 "/>
<path style=" stroke:none;fill-rule:nonzero;fill:rgb(90.196079%,90.196079%,90.196079%);fill-opacity:0.392157;" d="M 4.546875 1.992188 C 4.042969 1.992188 3.636719 2.398438 3.636719 2.902344 L 3.636719 3.015625 C 3.636719 2.511719 4.042969 2.105469 4.546875 2.105469 L 17.28125 2.105469 C 17.785156 2.105469 18.191406 2.511719 18.191406 3.015625 L 18.191406 2.902344 C 18.191406 2.398438 17.785156 1.992188 17.28125 1.992188 Z M 4.546875 1.992188 "/>
<path style=" stroke:none;fill-rule:nonzero;fill:rgb(12.941177%,12.941177%,12.941177%);fill-opacity:1;" d="M 4.546875 1.925781 C 4.007812 1.925781 3.574219 2.363281 3.574219 2.902344 L 3.574219 18.363281 C 3.574219 18.902344 4.007812 19.335938 4.546875 19.335938 L 17.28125 19.335938 C 17.820312 19.335938 18.257812 18.902344 18.257812 18.363281 L 18.257812 2.902344 C 18.257812 2.363281 17.820312 1.925781 17.28125 1.925781 Z M 4.546875 2.054688 L 17.28125 2.054688 C 17.75 2.054688 18.128906 2.429688 18.128906 2.902344 L 18.128906 18.363281 C 18.128906 18.832031 17.75 19.207031 17.28125 19.207031 L 4.546875 19.207031 C 4.078125 19.207031 3.703125 18.832031 3.703125 18.363281 L 3.703125 2.902344 C 3.703125 2.429688 4.078125 2.054688 4.546875 2.054688 Z M 4.546875 2.054688 "/>
<path style="fill:none;stroke-width:8;stroke-linecap:round;stroke-linejoin:round;stroke:url(#linear3);stroke-dasharray:16.000002,16.000002;stroke-dashoffset:7.200001;stroke-miterlimit:4;" d="M 148.167669 -147.460995 L 148.167669 212.322829 L 391.598968 212.322829 C 397.416594 212.322829 402.143415 207.596008 402.143415 201.778381 L 402.143415 -136.916548 C 402.143415 -142.825074 397.416594 -147.460995 391.598968 -147.460995 Z M 148.167669 -147.460995 " transform="matrix(0.0429729,0,0,0.0429729,0,9.239163)"/>
<path style="fill-rule:nonzero;fill:url(#linear4);stroke-width:3;stroke-linecap:round;stroke-linejoin:round;stroke:rgb(12.941177%,12.941177%,12.941177%);stroke-opacity:1;stroke-miterlimit:4;" d="M 349.239377 -168.640791 L 349.239377 85.334956 C 365.146948 42.975365 375.691396 42.975365 391.598968 85.334956 L 391.598968 -168.640791 Z M 349.239377 -168.640791 " transform="matrix(0.0429729,0,0,0.0429729,0,9.239163)"/>
<path style=" stroke:none;fill-rule:nonzero;fill:url(#linear5);" d="M 8.453125 4.609375 C 8.273438 4.429688 7.988281 4.429688 7.808594 4.609375 C 7.632812 4.789062 7.632812 5.074219 7.808594 5.253906 L 9.097656 6.539062 L 7.808594 7.824219 C 7.632812 8.003906 7.632812 8.289062 7.808594 8.46875 C 7.988281 8.648438 8.273438 8.648438 8.453125 8.46875 L 10.0625 6.859375 C 10.070312 6.847656 10.082031 6.839844 10.09375 6.824219 C 10.238281 6.648438 10.226562 6.382812 10.0625 6.21875 Z M 8.453125 4.609375 "/>
<path style=" stroke:none;fill-rule:nonzero;fill:rgb(100%,100%,100%);fill-opacity:1;" d="M 8.132812 4.476562 C 8.015625 4.476562 7.898438 4.519531 7.808594 4.609375 C 7.691406 4.726562 7.652344 4.894531 7.691406 5.042969 C 7.710938 4.964844 7.75 4.894531 7.808594 4.832031 C 7.988281 4.65625 8.273438 4.65625 8.453125 4.832031 L 10.0625 6.441406 C 10.121094 6.5 10.160156 6.574219 10.179688 6.652344 C 10.21875 6.5 10.179688 6.335938 10.0625 6.21875 L 8.453125 4.609375 C 8.363281 4.519531 8.246094 4.476562 8.132812 4.476562 Z M 8.984375 6.652344 L 7.808594 7.824219 C 7.691406 7.941406 7.652344 8.109375 7.691406 8.257812 C 7.710938 8.183594 7.75 8.109375 7.808594 8.050781 L 9.097656 6.761719 Z M 8.984375 6.652344 "/>
<path style=" stroke:none;fill-rule:nonzero;fill:rgb(0%,0%,0%);fill-opacity:0.235294;" d="M 7.710938 5.101562 C 7.644531 5.265625 7.675781 5.460938 7.808594 5.59375 L 8.925781 6.710938 L 9.097656 6.539062 L 7.808594 5.253906 C 7.765625 5.207031 7.730469 5.15625 7.710938 5.101562 Z M 10.160156 6.710938 C 10.144531 6.75 10.121094 6.789062 10.09375 6.824219 C 10.082031 6.839844 10.070312 6.847656 10.0625 6.859375 L 8.453125 8.46875 C 8.273438 8.648438 7.988281 8.648438 7.808594 8.46875 C 7.765625 8.425781 7.730469 8.371094 7.710938 8.316406 C 7.644531 8.480469 7.675781 8.675781 7.808594 8.808594 C 7.988281 8.988281 8.273438 8.988281 8.453125 8.808594 L 10.0625 7.203125 C 10.070312 7.191406 10.082031 7.179688 10.09375 7.167969 C 10.199219 7.035156 10.222656 6.859375 10.160156 6.710938 Z M 10.160156 6.710938 "/>
<path style="fill:none;stroke-width:3;stroke-linecap:round;stroke-linejoin:miter;stroke:rgb(12.941177%,12.941177%,12.941177%);stroke-opacity:1;stroke-miterlimit:4;" d="M 196.708488 -107.737516 C 192.527069 -111.918935 185.891339 -111.918935 181.70992 -107.737516 C 177.619402 -103.556097 177.619402 -96.920367 181.70992 -92.738948 L 211.707056 -62.832713 L 181.70992 -32.926478 C 177.619402 -28.745059 177.619402 -22.109329 181.70992 -17.92791 C 185.891339 -13.746491 192.527069 -13.746491 196.708488 -17.92791 L 234.159457 -55.378879 C 234.341258 -55.651581 234.613959 -55.833381 234.88666 -56.196983 C 238.249976 -60.287502 237.977274 -66.468729 234.159457 -70.286547 Z M 196.708488 -107.737516 " transform="matrix(0.0429729,0,0,0.0429729,0,9.239163)"/>
<path style=" stroke:none;fill-rule:nonzero;fill:rgb(12.941177%,12.941177%,12.941177%);fill-opacity:1;" d="M 4.546875 1.925781 C 4.007812 1.925781 3.574219 2.363281 3.574219 2.902344 L 3.574219 18.363281 C 3.574219 18.902344 4.007812 19.335938 4.546875 19.335938 L 17.28125 19.335938 C 17.820312 19.335938 18.257812 18.902344 18.257812 18.363281 L 18.257812 2.902344 C 18.257812 2.363281 17.820312 1.925781 17.28125 1.925781 Z M 4.546875 2.054688 L 17.28125 2.054688 C 17.75 2.054688 18.128906 2.429688 18.128906 2.902344 L 18.128906 18.363281 C 18.128906 18.832031 17.75 19.207031 17.28125 19.207031 L 4.546875 19.207031 C 4.078125 19.207031 3.703125 18.832031 3.703125 18.363281 L 3.703125 2.902344 C 3.703125 2.429688 4.078125 2.054688 4.546875 2.054688 Z M 4.546875 2.054688 "/>
<path style=" stroke:none;fill-rule:nonzero;fill:url(#linear6);" d="M 3.636719 6.3125 L 5.914062 6.3125 L 5.914062 7.222656 L 3.636719 7.222656 Z M 3.636719 6.3125 "/>
<path style=" stroke:none;fill-rule:nonzero;fill:rgb(0%,0%,0%);fill-opacity:0.235294;" d="M 3.636719 7.222656 L 3.636719 7.5625 L 5.914062 7.5625 L 5.914062 7.222656 Z M 3.636719 7.222656 "/>
<path style=" stroke:none;fill-rule:nonzero;fill:rgb(100%,100%,100%);fill-opacity:0.392157;" d="M 3.636719 6.3125 L 3.636719 6.539062 L 5.914062 6.539062 L 5.914062 6.3125 Z M 3.636719 6.3125 "/>
<path style="fill:none;stroke-width:3;stroke-linecap:round;stroke-linejoin:round;stroke:rgb(12.941177%,12.941177%,12.941177%);stroke-opacity:1;stroke-miterlimit:4;" d="M 84.628302 -20.48017 L 137.623242 -20.48017 L 137.623242 0.699626 L 84.628302 0.699626 Z M 84.628302 -20.48017 " transform="matrix(0.0429729,0,0,0.0429729,-0.000000873781,7.192591)"/>
<path style=" stroke:none;fill-rule:nonzero;fill:url(#linear7);" d="M 3.636719 13.816406 L 5.914062 13.816406 L 5.914062 14.726562 L 3.636719 14.726562 Z M 3.636719 13.816406 "/>
<path style=" stroke:none;fill-rule:nonzero;fill:rgb(0%,0%,0%);fill-opacity:0.235294;" d="M 3.636719 14.726562 L 3.636719 15.066406 L 5.914062 15.066406 L 5.914062 14.726562 Z M 3.636719 14.726562 "/>
<path style=" stroke:none;fill-rule:nonzero;fill:rgb(100%,100%,100%);fill-opacity:0.392157;" d="M 3.636719 13.816406 L 3.636719 14.042969 L 5.914062 14.042969 L 5.914062 13.816406 Z M 3.636719 13.816406 "/>
<path style="fill:none;stroke-width:3;stroke-linecap:round;stroke-linejoin:round;stroke:rgb(12.941177%,12.941177%,12.941177%);stroke-opacity:1;stroke-miterlimit:4;" d="M 84.628302 -20.4855 L 137.623242 -20.4855 L 137.623242 0.694295 L 84.628302 0.694295 Z M 84.628302 -20.4855 " transform="matrix(0.0429729,0,0,0.0429729,-0.000000873781,14.696727)"/>
</g>
</svg>
